SVG_Azure_All/O365 - Exchange.svg

<?xml version="1.0" encoding="UTF-8" standalone="no"?>
<!-- Generated by Microsoft Visio, SVG Export O365 - Exchange.svg Page-1 -->

<svg
   xmlns:dc="http://purl.org/dc/elements/1.1/"
   xmlns:cc="http://creativecommons.org/ns#"
   xmlns:rdf="http://www.w3.org/1999/02/22-rdf-syntax-ns#"
   xmlns:svg="http://www.w3.org/2000/svg"
   xmlns="http://www.w3.org/2000/svg"
   xmlns:sodipodi="http://sodipodi.sourceforge.net/DTD/sodipodi-0.dtd"
   xmlns:inkscape="http://www.inkscape.org/namespaces/inkscape"
   width="0.78745264in"
   height="0.66930586in"
   viewBox="0 0 56.696562 48.189905"
   xml:space="preserve"
   class="st17"
   version="1.1"
   id="svg96"
   sodipodi:docname="O365 - Exchange.svg"
   style="font-size:12px;overflow:visible;color-interpolation-filters:sRGB;fill:none;fill-rule:evenodd;stroke-linecap:square;stroke-miterlimit:3"
   inkscape:version="0.92.5 (2060ec1f9f, 2020-04-08)"><metadata
   id="metadata102"><rdf:RDF><cc:Work
       rdf:about=""><dc:format>image/svg+xml</dc:format><dc:type
         rdf:resource="http://purl.org/dc/dcmitype/StillImage" /></cc:Work></rdf:RDF></metadata><defs
   id="defs100" /><sodipodi:namedview
   pagecolor="#ffffff"
   bordercolor="#666666"
   borderopacity="1"
   objecttolerance="10"
   gridtolerance="10"
   guidetolerance="10"
   inkscape:pageopacity="0"
   inkscape:pageshadow="2"
   inkscape:window-width="640"
   inkscape:window-height="480"
   id="namedview98"
   showgrid="false"
   inkscape:zoom="1.8004228"
   inkscape:cx="37.795219"
   inkscape:cy="20.185745"
   inkscape:window-x="0"
   inkscape:window-y="0"
   inkscape:window-maximized="0"
   inkscape:current-layer="svg96" />
	<style
   type="text/css"
   id="style2">
	<![CDATA[
		.st1 {fill:#28a8ea;stroke:none;stroke-linecap:butt;stroke-width:16.1053}
		.st2 {fill:#0078d4;stroke:none;stroke-linecap:butt;stroke-width:16.1053}
		.st3 {fill:#50d9ff;stroke:none;stroke-linecap:butt;stroke-width:16.1053}
		.st4 {fill:#2086bb;stroke:none;stroke-linecap:butt;stroke-width:16.1053}
		.st5 {fill:#2497d2;stroke:none;stroke-linecap:butt;stroke-width:16.1053}
		.st6 {fill:#48c3e5;stroke:none;stroke-linecap:butt;stroke-width:16.1053}
		.st7 {fill:#1d78a8;stroke:none;stroke-linecap:butt;stroke-width:16.1053}
		.st8 {fill:#1d79a8;stroke:none;stroke-linecap:butt;stroke-width:16.1053}
		.st9 {fill:#176086;stroke:none;stroke-linecap:butt;stroke-width:16.1053}
		.st10 {fill:#2e7d92;stroke:none;stroke-linecap:butt;stroke-width:16.1053}
		.st11 {fill:#41afce;stroke:none;stroke-linecap:butt;stroke-width:16.1053}
		.st12 {fill:#838383;stroke:none;stroke-linecap:butt;stroke-width:16.1053}
		.st13 {fill:#155678}
		.st14 {stroke:none;stroke-linecap:butt;stroke-width:16.1053}
		.st15 {fill:#297083;stroke:none;stroke-linecap:butt;stroke-width:16.1053}
		.st16 {fill:#ffffff;stroke:none;stroke-linecap:butt;stroke-width:16.1053}
		.st17 {fill:none;fill-rule:evenodd;font-size:12px;overflow:visible;stroke-linecap:square;stroke-miterlimit:3}
	]]>
	</style>

	<g
   id="g94"
   transform="translate(-16.1053,-16.104396)">
		<title
   id="title4">Page-1</title>
		<g
   id="group2620-1"
   transform="translate(16.1053,-34.0157)">
			<title
   id="title6">O365 - Exchange</title>
			<g
   id="group2621-2">
				<title
   id="title8">Sheet.2621</title>
				<g
   id="shape2622-3"
   transform="translate(7.21656)">
					<title
   id="title10">Sheet.2622</title>
					<path
   d="M 45.86,50.12 H 33.28 c -0.95,0 -1.87,0.37 -2.55,1.03 L 1.05,80.06 C 0.38,80.73 0,81.61 0,82.55 V 94.8 c 0,1.94 1.61,3.51 3.6,3.51 h 12.58 c 0.95,0 1.87,-0.37 2.55,-1.03 L 48.42,68.35 c 0.68,-0.66 1.06,-1.54 1.06,-2.48 V 53.61 c -0.02,-1.93 -1.63,-3.49 -3.62,-3.49 z"
   class="st1"
   id="path12"
   inkscape:connector-curvature="0"
   style="fill:#28a8ea;stroke:none;stroke-width:16.1053009;stroke-linecap:butt" />
				</g>
				<g
   id="shape2623-5"
   transform="translate(31.9397)">
					<title
   id="title15">Sheet.2623</title>
					<path
   d="M 21.14,98.31 H 8.56 c -0.95,0 -1.87,-0.37 -2.55,-1.03 L 0,91.43 V 80.48 c 0,-3.47 2.88,-6.27 6.43,-6.27 h 11.24 l 6.01,5.85 c 0.68,0.67 1.06,1.55 1.06,2.49 V 94.8 c 0,1.94 -1.61,3.51 -3.6,3.51 z"
   class="st2"
   id="path17"
   inkscape:connector-curvature="0"
   style="fill:#0078d4;stroke:none;stroke-width:16.1053009;stroke-linecap:butt" />
				</g>
				<g
   id="shape2624-7"
   transform="translate(7.21656,-24.0871)">
					<title
   id="title20">Sheet.2624</title>
					<path
   d="m 3.6,74.21 h 12.58 c 0.95,0 1.87,0.37 2.55,1.03 l 6.01,5.85 v 10.95 c 0,3.47 -2.88,6.27 -6.43,6.27 H 7.07 L 1.05,92.45 C 0.38,91.79 0,90.91 0,89.97 V 77.7 c 0,-1.94 1.61,-3.49 3.6,-3.49 z"
   class="st3"
   id="path22"
   inkscape:connector-curvature="0"
   style="fill:#50d9ff;stroke:none;stroke-width:16.1053009;stroke-linecap:butt" />
				</g>
				<g
   id="shape2625-9"
   transform="translate(7.21656,-7.03092)">
					<title
   id="title25">Sheet.2625</title>
					<path
   d="m 0,89.58 v 8.73 h 20.26 c 0,0 0,0 0.02,0 1.16,0 2.15,-0.82 2.35,-1.94 -0.62,0.57 -1.45,0.93 -2.37,0.94 H 0 Z"
   class="st4"
   id="path27"
   inkscape:connector-curvature="0"
   style="fill:#2086bb;stroke:none;stroke-width:16.1053009;stroke-linecap:butt" />
				</g>
				<g
   id="shape2626-11"
   transform="translate(29.8455,-8.98314)">
					<title
   id="title30">Sheet.2626</title>
					<path
   d="M 1.07,80.33 C 0.78,80.77 0.44,81.17 0.05,81.52 V 95.9 c 0,0 0,0 0,0.02 v 1.99 c 0,0.14 -0.02,0.27 -0.05,0.4 0,0 0,0 0,0 0.65,-0.6 1.07,-1.47 1.07,-2.41 z"
   class="st5"
   id="path32"
   inkscape:connector-curvature="0"
   style="fill:#2497d2;stroke:none;stroke-width:16.1053009;stroke-linecap:butt" />
				</g>
				<g
   id="shape2627-13"
   transform="translate(7.21656,-25.7605)">
					<title
   id="title35">Sheet.2627</title>
					<path
   d="M 20.26,84.91 H 0 v 1 h 19.24 c 0,0 0,0 0,0 0,0 0,0 0,0 h 1.02 c 0,0 0,0 0,0 1.33,0 2.4,1.04 2.4,2.33 v 0.02 10.05 c 0.39,-0.35 0.74,-0.75 1.02,-1.19 v -8.86 c 0.02,-1.85 -1.52,-3.34 -3.42,-3.35 z"
   class="st6"
   id="path37"
   inkscape:connector-curvature="0"
   style="fill:#48c3e5;stroke:none;stroke-width:16.1053009;stroke-linecap:butt" />
				</g>
				<g
   id="shape2628-15"
   transform="translate(7.21656,-8.04373)">
					<title
   id="title40">Sheet.2628</title>
					<path
   d="m 0,90.59 v 7.72 h 20.26 c 0.92,-0.01 1.75,-0.37 2.37,-0.94 0,0 0,0 0,0 0.03,-0.13 0.04,-0.26 0.04,-0.4 v -1.99 c 0,1.28 -1.07,2.32 -2.39,2.33 H 20.26 0 Z"
   class="st7"
   id="path42"
   inkscape:connector-curvature="0"
   style="fill:#1d78a8;stroke:none;stroke-width:16.1053009;stroke-linecap:butt" />
				</g>
				<g
   id="shape2629-17"
   transform="translate(29.8907,-11.3757)">
					<title
   id="title45">Sheet.2629</title>
					<path
   d="m 0,83.91 v 14.4 z"
   class="st8"
   id="path47"
   inkscape:connector-curvature="0"
   style="fill:#1d79a8;stroke:none;stroke-width:16.1053009;stroke-linecap:butt" />
				</g>
				<g
   id="shape2630-19"
   transform="translate(7.21656,-9.04185)">
					<title
   id="title50">Sheet.2630</title>
					<path
   d="m 22.67,81.58 c -0.31,0.28 -0.66,0.54 -1.02,0.76 v 13.64 c 0,1.29 -1.07,2.33 -2.4,2.33 H 19.24 0 v -6.72 6.72 h 20.26 0.02 c 1.32,0 2.39,-1.04 2.39,-2.33 z"
   class="st9"
   id="path52"
   inkscape:connector-curvature="0"
   style="fill:#176086;stroke:none;stroke-width:16.1053009;stroke-linecap:butt" />
				</g>
				<g
   id="shape2631-21"
   transform="translate(26.4557,-25.0119)">
					<title
   id="title55">Sheet.2631</title>
					<path
   d="m 1.02,85.16 c 0,0 0,0 0,0 H 0 c 1.33,0 2.4,1.04 2.4,2.33 v 0.02 10.8 C 2.77,98.09 3.1,97.84 3.42,97.55 V 87.51 87.49 c 0,-1.27 -1.07,-2.33 -2.4,-2.33 z"
   class="st10"
   id="path57"
   inkscape:connector-curvature="0"
   style="fill:#2e7d92;stroke:none;stroke-width:16.1053009;stroke-linecap:butt" />
				</g>
				<g
   id="shape2632-23"
   transform="translate(7.21656,-38.1637)">
					<title
   id="title60">Sheet.2632</title>
					<path
   d="M 19.24,98.31 H 0 Z"
   class="st11"
   id="path62"
   inkscape:connector-curvature="0"
   style="fill:#41afce;stroke:none;stroke-width:16.1053009;stroke-linecap:butt" />
				</g>
				<g
   id="shape2633-25"
   transform="translate(7.21656,-15.7645)">
					<title
   id="title65">Sheet.2633</title>
					<path
   d="M 0,81.64 V 98.31 C 0,97.39 0.38,96.49 1.05,95.83 L 7.07,89.97 1.05,84.12 C 0.38,83.46 0,82.56 0,81.64 Z"
   class="st12"
   id="path67"
   inkscape:connector-curvature="0"
   style="fill:#838383;stroke:none;stroke-width:16.1053009;stroke-linecap:butt" />
				</g>
				<g
   id="shape2634-27"
   transform="translate(7.21656,-9.04185)">
					<title
   id="title70">Sheet.2634</title>
					<path
   d="m 21.63,82.34 c -0.97,0.57 -2.1,0.91 -3.34,0.91 H 7.07 L 1.05,89.11 C 0.38,89.77 0,90.65 0,91.59 v 6.72 h 19.24 0.01 c 1.33,0 2.4,-1.04 2.4,-2.33 V 82.34 Z"
   class="st13"
   id="path72"
   inkscape:connector-curvature="0"
   style="fill:#155678" />
					<path
   d="m 21.63,82.34 c -0.97,0.57 -2.1,0.91 -3.34,0.91 H 7.07 L 1.05,89.11 C 0.38,89.77 0,90.65 0,91.59 v 6.72 h 19.24 0.01 c 1.33,0 2.4,-1.04 2.4,-2.33 V 82.34"
   class="st14"
   id="path74"
   inkscape:connector-curvature="0"
   style="stroke:none;stroke-width:16.1053009;stroke-linecap:butt" />
				</g>
				<g
   id="shape2635-30"
   transform="translate(7.21656,-24.1018)">
					<title
   id="title77">Sheet.2635</title>
					<path
   d="M 19.24,84.25 H 0 v 5.72 c 0,0.93 0.38,1.82 1.05,2.48 l 6.02,5.86 h 11.24 c 1.22,0 2.36,-0.34 3.34,-0.91 V 86.6 86.58 C 21.63,85.3 20.56,84.26 19.24,84.25 Z"
   class="st15"
   id="path79"
   inkscape:connector-curvature="0"
   style="fill:#297083;stroke:none;stroke-width:16.1053009;stroke-linecap:butt" />
				</g>
				<g
   id="shape2636-32"
   transform="translate(0,-10.04)">
					<title
   id="title82">Sheet.2636</title>
					<path
   d="m 2.41,70.19 h 24.05 c 1.32,0 2.41,1.04 2.41,2.34 v 23.43 c 0,1.29 -1.07,2.35 -2.41,2.35 H 2.41 C 1.08,98.31 0,97.27 0,95.96 V 72.53 c 0,-1.29 1.08,-2.34 2.41,-2.34 z"
   class="st2"
   id="path84"
   inkscape:connector-curvature="0"
   style="fill:#0078d4;stroke:none;stroke-width:16.1053009;stroke-linecap:butt" />
				</g>
				<g
   id="shape2637-34"
   transform="translate(9.34085,-16.4838)">
					<title
   id="title87">Sheet.2637</title>
					<path
   d="M 9.81,85.55 H 3.06 V 89.4 H 9.4 v 2.47 H 3.06 v 3.99 h 7.11 v 2.45 H 0 V 83.07 h 9.81 z"
   class="st16"
   id="path89"
   inkscape:connector-curvature="0"
   style="fill:#ffffff;stroke:none;stroke-width:16.1053009;stroke-linecap:butt" />
				</g>
			</g>
		</g>
	</g>
</svg>

<?xml version="1.0" encoding="UTF-8" standalone="no"?>
<!DOCTYPE svg PUBLIC "-//W3C//DTD SVG 1.1//EN" "http://www.w3.org/Graphics/SVG/1.1/DTD/svg11.dtd">
<!-- Generated by Microsoft Visio, SVG Export O365 - Exchange.svg Page-1 -->
<svg xmlns="http://www.w3.org/2000/svg" xmlns:xlink="http://www.w3.org/1999/xlink" xmlns:ev="http://www.w3.org/2001/xml-events"
		width="1.23477in" height="1.36542in" viewBox="0 0 88.9034 98.31" xml:space="preserve" color-interpolation-filters="sRGB"
		class="st17">
	<style type="text/css">
	<![CDATA[
		.st1 {fill:#28a8ea;stroke:none;stroke-linecap:butt;stroke-width:16.1053}
		.st2 {fill:#0078d4;stroke:none;stroke-linecap:butt;stroke-width:16.1053}
		.st3 {fill:#50d9ff;stroke:none;stroke-linecap:butt;stroke-width:16.1053}
		.st4 {fill:#2086bb;stroke:none;stroke-linecap:butt;stroke-width:16.1053}
		.st5 {fill:#2497d2;stroke:none;stroke-linecap:butt;stroke-width:16.1053}
		.st6 {fill:#48c3e5;stroke:none;stroke-linecap:butt;stroke-width:16.1053}
		.st7 {fill:#1d78a8;stroke:none;stroke-linecap:butt;stroke-width:16.1053}
		.st8 {fill:#1d79a8;stroke:none;stroke-linecap:butt;stroke-width:16.1053}
		.st9 {fill:#176086;stroke:none;stroke-linecap:butt;stroke-width:16.1053}
		.st10 {fill:#2e7d92;stroke:none;stroke-linecap:butt;stroke-width:16.1053}
		.st11 {fill:#41afce;stroke:none;stroke-linecap:butt;stroke-width:16.1053}
		.st12 {fill:#838383;stroke:none;stroke-linecap:butt;stroke-width:16.1053}
		.st13 {fill:#155678}
		.st14 {stroke:none;stroke-linecap:butt;stroke-width:16.1053}
		.st15 {fill:#297083;stroke:none;stroke-linecap:butt;stroke-width:16.1053}
		.st16 {fill:#ffffff;stroke:none;stroke-linecap:butt;stroke-width:16.1053}
		.st17 {fill:none;fill-rule:evenodd;font-size:12px;overflow:visible;stroke-linecap:square;stroke-miterlimit:3}
	]]>
	</style>

	<g>
		<title>Page-1</title>
		<g id="group2594-1" transform="translate(16.1053,-34.0157)">
			<title>O365 - Exchange</title>
			<g id="group2595-2">
				<title>Sheet.2595</title>
				<g id="shape2596-3" transform="translate(7.21656,0)">
					<title>Sheet.2596</title>
					<path d="M45.86 50.12 L33.28 50.12 C32.33 50.12 31.41 50.49 30.73 51.15 L1.05 80.06 C0.38 80.73 0 81.61 0 82.55
								 L0 94.8 C0 96.74 1.61 98.31 3.6 98.31 L16.18 98.31 C17.13 98.31 18.05 97.94 18.73 97.28 L48.42 68.35
								 C49.1 67.69 49.48 66.81 49.48 65.87 L49.48 53.61 C49.46 51.68 47.85 50.12 45.86 50.12 Z"
							class="st1"/>
				</g>
				<g id="shape2597-5" transform="translate(31.9397,0)">
					<title>Sheet.2597</title>
					<path d="M21.14 98.31 L8.56 98.31 C7.61 98.31 6.69 97.94 6.01 97.28 L0 91.43 L0 80.48 C0 77.01 2.88 74.21 6.43
								 74.21 L17.67 74.21 L23.68 80.06 C24.36 80.73 24.74 81.61 24.74 82.55 L24.74 94.8 C24.74 96.74 23.13
								 98.31 21.14 98.31 Z" class="st2"/>
				</g>
				<g id="shape2598-7" transform="translate(7.21656,-24.0871)">
					<title>Sheet.2598</title>
					<path d="M3.6 74.21 L16.18 74.21 C17.13 74.21 18.05 74.58 18.73 75.24 L24.74 81.09 L24.74 92.04 C24.74 95.51
								 21.86 98.31 18.31 98.31 L7.07 98.31 L1.05 92.45 C0.38 91.79 0 90.91 0 89.97 L0 77.7 C0 75.76 1.61
								 74.21 3.6 74.21 Z" class="st3"/>
				</g>
				<g id="shape2599-9" transform="translate(7.21656,-7.03092)">
					<title>Sheet.2599</title>
					<path d="M0 89.58 L0 98.31 L20.26 98.31 C20.26 98.31 20.26 98.31 20.28 98.31 C21.44 98.31 22.43 97.49 22.63 96.37
								 C22.01 96.94 21.18 97.3 20.26 97.31 L0 97.31 L0 89.58 Z" class="st4"/>
				</g>
				<g id="shape2600-11" transform="translate(29.8455,-8.98314)">
					<title>Sheet.2600</title>
					<path d="M1.07 80.33 C0.78 80.77 0.44 81.17 0.05 81.52 L0.05 95.9 C0.05 95.9 0.05 95.9 0.05 95.92 L0.05 97.91
								 C0.05 98.05 0.03 98.18 0 98.31 C0 98.31 0 98.31 0 98.31 C0.65 97.71 1.07 96.84 1.07 95.9 L1.07 80.33
								 Z" class="st5"/>
				</g>
				<g id="shape2601-13" transform="translate(7.21656,-25.7605)">
					<title>Sheet.2601</title>
					<path d="M20.26 84.91 L0 84.91 L0 85.91 L19.24 85.91 C19.24 85.91 19.24 85.91 19.24 85.91 C19.24 85.91 19.24
								 85.91 19.24 85.91 L20.26 85.91 C20.26 85.91 20.26 85.91 20.26 85.91 C21.59 85.91 22.66 86.95 22.66
								 88.24 L22.66 88.26 L22.66 98.31 C23.05 97.96 23.4 97.56 23.68 97.12 L23.68 88.26 C23.7 86.41 22.16
								 84.92 20.26 84.91 Z" class="st6"/>
				</g>
				<g id="shape2602-15" transform="translate(7.21656,-8.04373)">
					<title>Sheet.2602</title>
					<path d="M0 90.59 L0 98.31 L20.26 98.31 C21.18 98.3 22.01 97.94 22.63 97.37 C22.63 97.37 22.63 97.37 22.63 97.37
								 C22.66 97.24 22.67 97.11 22.67 96.97 L22.67 94.98 C22.67 96.26 21.6 97.3 20.28 97.31 L20.26 97.31
								 L0 97.31 L0 90.59 Z" class="st7"/>
				</g>
				<g id="shape2603-17" transform="translate(29.8907,-11.3757)">
					<title>Sheet.2603</title>
					<path d="M0 83.91 L0 98.31 L0 83.91 Z" class="st8"/>
				</g>
				<g id="shape2604-19" transform="translate(7.21656,-9.04185)">
					<title>Sheet.2604</title>
					<path d="M22.67 81.58 C22.36 81.86 22.01 82.12 21.65 82.34 L21.65 95.98 C21.65 97.27 20.58 98.31 19.25 98.31
								 L19.24 98.31 L0 98.31 L0 91.59 L0 98.31 L20.26 98.31 L20.28 98.31 C21.6 98.31 22.67 97.27 22.67
								 95.98 L22.67 81.58 Z" class="st9"/>
				</g>
				<g id="shape2605-21" transform="translate(26.4557,-25.0119)">
					<title>Sheet.2605</title>
					<path d="M1.02 85.16 C1.02 85.16 1.02 85.16 1.02 85.16 L0 85.16 C1.33 85.16 2.4 86.2 2.4 87.49 L2.4 87.51 L2.4
								 98.31 C2.77 98.09 3.1 97.84 3.42 97.55 L3.42 87.51 L3.42 87.49 C3.42 86.22 2.35 85.16 1.02 85.16
								 Z" class="st10"/>
				</g>
				<g id="shape2606-23" transform="translate(7.21656,-38.1637)">
					<title>Sheet.2606</title>
					<path d="M19.24 98.31 L0 98.31 L19.24 98.31 Z" class="st11"/>
				</g>
				<g id="shape2607-25" transform="translate(7.21656,-15.7645)">
					<title>Sheet.2607</title>
					<path d="M0 81.64 L0 98.31 C0 97.39 0.38 96.49 1.05 95.83 L7.07 89.97 L1.05 84.12 C0.38 83.46 0 82.56 0 81.64
								 Z" class="st12"/>
				</g>
				<g id="shape2608-27" transform="translate(7.21656,-9.04185)">
					<title>Sheet.2608</title>
					<path d="M21.63 82.34 C20.66 82.91 19.53 83.25 18.29 83.25 L7.07 83.25 L1.05 89.11 C0.38 89.77 0 90.65 0 91.59
								 L0 98.31 L19.24 98.31 L19.25 98.31 C20.58 98.31 21.65 97.27 21.65 95.98 L21.65 82.34 L21.63 82.34
								 Z" class="st13"/>
					<path d="M21.63 82.34 C20.66 82.91 19.53 83.25 18.29 83.25 L7.07 83.25 L1.05 89.11 C0.38 89.77 0 90.65 0 91.59
								 L0 98.31 L19.24 98.31 L19.25 98.31 C20.58 98.31 21.65 97.27 21.65 95.98 L21.65 82.34" class="st14"/>
				</g>
				<g id="shape2609-30" transform="translate(7.21656,-24.1018)">
					<title>Sheet.2609</title>
					<path d="M19.24 84.25 L0 84.25 L0 89.97 C0 90.9 0.38 91.79 1.05 92.45 L7.07 98.31 L18.31 98.31 C19.53 98.31 20.67
								 97.97 21.65 97.4 L21.65 86.6 L21.65 86.58 C21.63 85.3 20.56 84.26 19.24 84.25 Z" class="st15"/>
				</g>
				<g id="shape2610-32" transform="translate(0,-10.04)">
					<title>Sheet.2610</title>
					<path d="M2.41 70.19 L26.46 70.19 C27.78 70.19 28.87 71.23 28.87 72.53 L28.87 95.96 C28.87 97.25 27.8 98.31 26.46
								 98.31 L2.41 98.31 C1.08 98.31 0 97.27 0 95.96 L0 72.53 C0 71.24 1.08 70.19 2.41 70.19 Z"
							class="st2"/>
				</g>
				<g id="shape2611-34" transform="translate(9.34085,-16.4838)">
					<title>Sheet.2611</title>
					<path d="M9.81 85.55 L3.06 85.55 L3.06 89.4 L9.4 89.4 L9.4 91.87 L3.06 91.87 L3.06 95.86 L10.17 95.86 L10.17
								 98.31 L0 98.31 L0 83.07 L9.81 83.07 L9.81 85.55 Z" class="st16"/>
				</g>
			</g>
		</g>
	</g>
</svg>
